icons/svg/seamark_big/radio_station_dgps_additional.svg

<?xml version="1.0" encoding="UTF-8" standalone="no"?>
<svg
   xmlns:dc="http://purl.org/dc/elements/1.1/"
   xmlns:cc="http://creativecommons.org/ns#"
   xmlns:rdf="http://www.w3.org/1999/02/22-rdf-syntax-ns#"
   xmlns:svg="http://www.w3.org/2000/svg"
   xmlns="http://www.w3.org/2000/svg"
   xmlns:sodipodi="http://sodipodi.sourceforge.net/DTD/sodipodi-0.dtd"
   xmlns:inkscape="http://www.inkscape.org/namespaces/inkscape"
   width="1060"
   height="1060"
   id="svg2"
   version="1.1"
   inkscape:version="0.48.4 r9939"
   sodipodi:docname="radio_station_ais_additional.svg">
  <defs
     id="defs13">
    <inkscape:path-effect
       effect="gears"
       id="path-effect3774"
       is_visible="true"
       teeth="6"
       phi="-1.2" />
    <inkscape:path-effect
       effect="bend_path"
       id="path-effect3772"
       is_visible="false"
       bendpath="m 95.790098,316.51174 c 144.429032,-206.42506 223.313032,-11.7428 339.548092,0"
       prop_scale="1.19"
       scale_y_rel="false"
       vertical="false"
       bendpath-nodetypes="cc" />
  </defs>
  <sodipodi:namedview
     pagecolor="#ffffff"
     bordercolor="#666666"
     borderopacity="1"
     objecttolerance="10"
     gridtolerance="10"
     guidetolerance="10"
     inkscape:pageopacity="0"
     inkscape:pageshadow="2"
     inkscape:window-width="1680"
     inkscape:window-height="1021"
     id="namedview11"
     showgrid="false"
     inkscape:zoom="0.28771931"
     inkscape:cx="1231.537"
     inkscape:cy="506.88528"
     inkscape:window-x="0"
     inkscape:window-y="0"
     inkscape:window-maximized="1"
     inkscape:current-layer="svg2"
     inkscape:snap-object-midpoints="true"
     inkscape:snap-center="true" />
  <metadata
     id="metadata2975">image/svg+xmlen<rdf:RDF>
  <cc:Work
     rdf:about="">
    <dc:format>image/svg+xml</dc:format>
    <dc:type
       rdf:resource="http://purl.org/dc/dcmitype/StillImage" />
    <dc:title></dc:title>
  </cc:Work>
</rdf:RDF>
</metadata>
  <path
     sodipodi:type="inkscape:offset"
     inkscape:radius="38.167908"
     inkscape:original="M 256.6875 470.71875 C 235.32677 470.71888 218.50387 476.45129 206.21875 487.90625 C 193.93358 499.36143 187.81249 515.08537 187.8125 535.0625 C 187.81249 554.8184 193.84243 570.46552 205.90625 582.03125 C 217.97001 593.54167 234.32742 599.3125 254.96875 599.3125 C 264.09952 599.3125 272.95368 598.3431 281.53125 596.40625 C 290.10861 594.4694 298.37489 591.5612 306.34375 587.6875 L 306.34375 528.09375 L 256.53125 528.09375 L 256.53125 549.5 L 276.03125 549.5 L 276.03125 573.5625 C 273.76228 574.44794 271.19001 575.11981 268.3125 575.5625 C 265.49014 575.94989 262.41398 576.15628 259.09375 576.15625 C 246.86386 576.15628 237.45307 572.57619 230.8125 565.4375 C 224.17184 558.29886 220.84371 548.17778 220.84375 535.0625 C 220.84371 521.83666 224.26297 511.67717 231.125 504.59375 C 238.04226 497.45518 247.86582 493.87511 260.59375 493.875 C 267.45564 493.87511 274.28701 494.8445 281.09375 496.78125 C 287.95562 498.71819 294.86382 501.66481 301.78125 505.59375 L 301.78125 479.9375 C 295.08518 476.894 287.92502 474.6121 280.34375 473.0625 C 272.81761 471.51315 264.93286 470.71888 256.6875 470.71875 z M 501.8125 470.71875 C 486.87105 470.71888 475.43747 474.047 467.46875 480.6875 C 459.49998 487.32823 455.49999 496.81585 455.5 509.15625 C 455.49999 519.00659 458.36261 526.84577 464.0625 532.65625 C 469.81768 538.46686 478.88538 542.68755 491.28125 545.34375 L 503.65625 548.09375 C 511.18223 549.75396 516.19719 551.64719 518.6875 553.75 C 521.23299 555.85291 522.49992 558.81384 522.5 562.6875 C 522.49992 567.00393 520.64511 570.33205 516.9375 572.65625 C 513.22975 574.98049 507.87884 576.15628 500.90625 576.15625 C 494.04422 576.15628 486.91532 575.10288 479.5 573 C 472.13995 570.84182 464.50715 567.64326 456.59375 563.4375 L 456.59375 590.4375 C 464.50715 593.37044 472.39906 595.56836 480.3125 597.0625 C 488.22587 598.55664 496.11062 599.3125 503.96875 599.3125 C 520.62557 599.3125 533.01423 595.98437 541.09375 589.34375 C 549.22841 582.6478 553.28114 572.48115 553.28125 558.8125 C 553.28114 548.4089 550.37294 540.36333 544.5625 534.71875 C 538.75185 529.07428 528.96671 524.892 515.1875 522.125 L 501.5625 519.375 C 495.08784 518.04695 490.61519 516.4825 488.125 514.65625 C 485.69007 512.77482 484.46871 510.16415 484.46875 506.84375 C 484.46871 502.41676 486.28511 499.13421 489.9375 497.03125 C 493.58979 494.92849 499.23822 493.87511 506.875 493.875 C 512.63014 493.87511 518.74406 494.66937 525.21875 496.21875 C 531.69327 497.76833 538.34952 500.05023 545.15625 503.09375 L 545.15625 476.875 C 537.4641 474.8276 530.00642 473.30872 522.8125 472.3125 C 515.61842 471.26119 508.61908 470.71888 501.8125 470.71875 z M 53.84375 472.96875 L 53.84375 596.90625 L 87.53125 596.90625 C 106.12493 596.90625 120.07804 595.5625 129.375 592.90625 C 138.67177 590.19467 146.64051 585.63804 153.28125 579.21875 C 159.09167 573.62958 163.39636 567.17972 166.21875 559.875 C 169.04088 552.51502 170.46861 544.16477 170.46875 534.8125 C 170.46861 525.57104 169.04088 517.30476 166.21875 510 C 163.39636 502.6954 159.09167 496.24554 153.28125 490.65625 C 146.69585 484.23709 138.77269 479.68761 129.53125 477.03125 C 120.34497 474.31978 106.34629 472.96888 87.53125 472.96875 L 53.84375 472.96875 z M 334.40625 472.96875 L 334.40625 596.90625 L 366.34375 596.90625 L 366.34375 553.90625 L 387.4375 553.90625 C 403.2089 553.90629 415.3072 550.4102 423.71875 543.4375 C 432.18543 536.40956 436.40613 526.41088 436.40625 513.40625 C 436.40613 500.45713 432.18543 490.47276 423.71875 483.5 C 415.3072 476.47212 403.2089 472.96888 387.4375 472.96875 L 334.40625 472.96875 z M 366.34375 496.125 L 384.03125 496.125 C 390.22909 496.1251 395.03052 497.63682 398.40625 500.625 C 401.78182 503.61338 403.46867 507.87248 403.46875 513.40625 C 403.46867 518.94018 401.78182 523.20645 398.40625 526.25 C 395.03052 529.23835 390.22909 530.75007 384.03125 530.75 L 366.34375 530.75 L 366.34375 496.125 z M 85.78125 497.125 L 97.25 497.125 C 110.36517 497.1251 120.35669 500.33083 127.21875 506.75 C 134.08064 513.16936 137.4999 522.52742 137.5 534.8125 C 137.4999 547.15305 134.04222 556.55668 127.125 563.03125 C 120.26294 569.50589 110.30983 572.75003 97.25 572.75 L 85.78125 572.75 L 85.78125 497.125 z "
     style="font-size:170px;font-style:normal;font-weight:bold;line-height:125%;letter-spacing:0px;word-spacing:0px;opacity:0.8731343;color:#000000;fill:#acd8f3;fill-opacity:1;fill-rule:nonzero;stroke:#a35151;stroke-width:0;stroke-linecap:round;stroke-linejoin:miter;stroke-miterlimit:4;stroke-opacity:1;stroke-dasharray:none;stroke-dashoffset:0;marker:none;visibility:visible;display:inline;overflow:visible;enable-background:accumulate;font-family:Sans;-inkscape-font-specification:Sans Bold"
     id="path3271"
     d="m 256.6875,432.5625 c -28.18915,1.7e-4 -56.14899,8.4617 -76.5,27.4375 -0.65653,0.61218 -1.20846,1.30649 -1.84375,1.9375 -10.75805,-9.99941 -23.98014,-17.42277 -38,-21.5 -0.0195,-0.006 -0.0429,0.006 -0.0625,0 -0.0759,-0.022 -0.14285,-0.0719 -0.21875,-0.0937 l 0,0.0312 c -15.89212,-4.64628 -32.00899,-5.56236 -52.53125,-5.5625 l -33.6875,0 A 38.171725,38.171725 0 0 0 15.6875,472.96875 l 0,123.9375 a 38.171725,38.171725 0 0 0 38.15625,38.15625 l 33.6875,0 c 20.43259,0 36.61674,-0.97536 52.34375,-5.46875 a 38.171725,38.171725 0 0 0 0.1875,-0.0312 c 13.99989,-4.08333 27.22179,-11.49741 38.0625,-21.46875 0.47886,0.48135 0.88403,1.0293 1.375,1.5 a 38.171725,38.171725 0 0 0 0.0625,0.0625 c 19.92119,19.00745 47.65102,27.8125 75.40625,27.8125 11.83226,0 23.55559,-1.26661 34.96875,-3.84375 7.22398,-1.63124 14.29088,-3.83966 21.1875,-6.5 a 38.171725,38.171725 0 0 0 23.28125,7.9375 l 31.9375,0 A 38.171725,38.171725 0 0 0 404.5,596.90625 l 0,-5.96875 c 4.70992,-0.64067 9.36507,-1.58527 13.9375,-2.875 l 0,2.375 a 38.171725,38.171725 0 0 0 24.90625,35.78125 c 9.84075,3.64727 19.80202,6.44187 29.875,8.34375 10.14929,1.91631 20.44433,2.90625 30.75,2.90625 21.74093,0 43.34258,-3.80402 61.375,-18.625 a 38.171725,38.171725 0 0 0 0,-0.0312 c 17.96835,-14.79044 26.09358,-38.78703 26.09375,-60 -1.4e-4,-13.27265 -3.46403,-28.04164 -11.34375,-40.4375 a 38.171725,38.171725 0 0 0 3.21875,-15.28125 l 0,-26.21875 A 38.171725,38.171725 0 0 0 554.96875,440 c -8.98728,-2.39212 -17.85154,-4.21002 -26.625,-5.4375 -0.002,-2.4e-4 0.002,-0.031 0,-0.0312 -0.0936,-0.0137 -0.18764,-0.0177 -0.28125,-0.0312 -8.74717,-1.2659 -17.51012,-1.93733 -26.25,-1.9375 -20.3491,1.8e-4 -41.28868,4.60469 -58.125,18.3125 -16.63688,-11.9044 -36.61,-16.06234 -56.25,-16.0625 l -53.03125,0 a 38.171725,38.171725 0 0 0 -23.21875,7.90625 c -7.54938,-2.96583 -15.2544,-5.44099 -23.1875,-7.0625 l 0,0.0312 c -10.15007,-2.0873 -20.62696,-3.12483 -31.3125,-3.125 z m 109.65625,76.375 0,4.46875 0,4.46875 c -0.62708,-1.95664 -1.03124,-3.68496 -1.03125,-4.46875 10e-6,-0.78946 0.40451,-2.52143 1.03125,-4.46875 z"
     transform="translate(-12,-212)" />
  <path
     style="font-size:170px;font-style:normal;font-weight:bold;line-height:125%;letter-spacing:0px;word-spacing:0px;fill:#000000;fill-opacity:1;stroke:none;font-family:Sans;-inkscape-font-specification:Sans Bold"
     d="m 244.6875,258.71875 c -21.36073,1.3e-4 -38.18363,5.73254 -50.46875,17.1875 -12.28517,11.45518 -18.40626,27.17912 -18.40625,47.15625 -1e-5,19.7559 6.02993,35.40302 18.09375,46.96875 12.06376,11.51042 28.42117,17.28125 49.0625,17.28125 9.13077,0 17.98493,-0.9694 26.5625,-2.90625 8.57736,-1.93685 16.84364,-4.84505 24.8125,-8.71875 l 0,-59.59375 -49.8125,0 0,21.40625 19.5,0 0,24.0625 c -2.26897,0.88544 -4.84124,1.55731 -7.71875,2 -2.82236,0.38739 -5.89852,0.59378 -9.21875,0.59375 -12.22989,3e-5 -21.64068,-3.58006 -28.28125,-10.71875 -6.64066,-7.13864 -9.96879,-17.25972 -9.96875,-30.375 -4e-5,-13.22584 3.41922,-23.38533 10.28125,-30.46875 6.91726,-7.13857 16.74082,-10.71864 29.46875,-10.71875 6.86189,1.1e-4 13.69326,0.9695 20.5,2.90625 6.86187,1.93694 13.77007,4.88356 20.6875,8.8125 l 0,-25.65625 c -6.69607,-3.0435 -13.85623,-5.3254 -21.4375,-6.875 -7.52614,-1.54935 -15.41089,-2.34362 -23.65625,-2.34375 z m 245.125,0 c -14.94145,1.3e-4 -26.37503,3.32825 -34.34375,9.96875 -7.96877,6.64073 -11.96876,16.12835 -11.96875,28.46875 -10e-6,9.85034 2.86261,17.68952 8.5625,23.5 5.75518,5.81061 14.82288,10.0313 27.21875,12.6875 l 12.375,2.75 c 7.52598,1.66021 12.54094,3.55344 15.03125,5.65625 2.54549,2.10291 3.81242,5.06384 3.8125,8.9375 -8e-5,4.31643 -1.85489,7.64455 -5.5625,9.96875 -3.70775,2.32424 -9.05866,3.50003 -16.03125,3.5 -6.86203,3e-5 -13.99093,-1.05337 -21.40625,-3.15625 -7.36005,-2.15818 -14.99285,-5.35674 -22.90625,-9.5625 l 0,27 c 7.9134,2.93294 15.80531,5.13086 23.71875,6.625 7.91337,1.49414 15.79812,2.25 23.65625,2.25 16.65682,0 29.04548,-3.32813 37.125,-9.96875 8.13466,-6.69595 12.18739,-16.8626 12.1875,-30.53125 -1.1e-4,-10.4036 -2.90831,-18.44917 -8.71875,-24.09375 -5.81065,-5.64447 -15.59579,-9.82675 -29.375,-12.59375 l -13.625,-2.75 c -6.47466,-1.32805 -10.94731,-2.8925 -13.4375,-4.71875 -2.43493,-1.88143 -3.65629,-4.4921 -3.65625,-7.8125 -4e-5,-4.42699 1.81636,-7.70954 5.46875,-9.8125 3.65229,-2.10276 9.30072,-3.15614 16.9375,-3.15625 5.75514,1.1e-4 11.86906,0.79437 18.34375,2.34375 6.47452,1.54958 13.13077,3.83148 19.9375,6.875 l 0,-26.21875 c -7.69215,-2.0474 -15.14983,-3.56628 -22.34375,-4.5625 -7.19408,-1.05131 -14.19342,-1.59362 -21,-1.59375 z m -447.96875,2.25 0,123.9375 33.6875,0 c 18.59368,0 32.54679,-1.34375 41.84375,-4 9.29677,-2.71158 17.26551,-7.26821 23.90625,-13.6875 5.81042,-5.58917 10.11511,-12.03903 12.9375,-19.34375 2.82213,-7.35998 4.24986,-15.71023 4.25,-25.0625 -1.4e-4,-9.24146 -1.42787,-17.50774 -4.25,-24.8125 -2.82239,-7.3046 -7.12708,-13.75446 -12.9375,-19.34375 -6.5854,-6.41916 -14.50856,-10.96864 -23.75,-13.625 -9.18628,-2.71147 -23.18496,-4.06237 -42,-4.0625 l -33.6875,0 z m 280.5625,0 0,123.9375 31.9375,0 0,-43 21.09375,0 c 15.7714,4e-5 27.8697,-3.49605 36.28125,-10.46875 8.46668,-7.02794 12.68738,-17.02662 12.6875,-30.03125 -1.2e-4,-12.94912 -4.22082,-22.93349 -12.6875,-29.90625 -8.41155,-7.02788 -20.50985,-10.53112 -36.28125,-10.53125 l -53.03125,0 z m 31.9375,23.15625 17.6875,0 c 6.19784,10e-5 10.99927,1.51182 14.375,4.5 3.37557,2.98838 5.06242,7.24748 5.0625,12.78125 -8e-5,5.53393 -1.68693,9.8002 -5.0625,12.84375 -3.37573,2.98835 -8.17716,4.50007 -14.375,4.5 l -17.6875,0 0,-34.625 z m -280.5625,1 11.46875,0 c 13.11517,10e-5 23.10669,3.20583 29.96875,9.625 6.86189,6.41936 10.28115,15.77742 10.28125,28.0625 -1e-4,12.34055 -3.45778,21.74418 -10.375,28.21875 -6.86206,6.47464 -16.81517,9.71878 -29.875,9.71875 l -11.46875,0 0,-75.625 z"
     id="path3223"
     inkscape:connector-curvature="0" />
</svg>

<svg width="1060" height="1060" viewBox="0 0 1060 1060" fill="none" xmlns="http://www.w3.org/2000/svg">
<path opacity="0.873134" d="M244.688 220.562C216.498 220.563 188.539 229.024 168.188 248C167.531 248.612 166.979 249.306 166.344 249.938C155.586 239.938 142.364 232.515 128.344 228.438C128.324 228.431 128.301 228.444 128.281 228.438C128.205 228.416 128.138 228.366 128.062 228.344V228.375C112.17 223.729 96.0535 222.813 75.5312 222.812H41.8438C31.7253 222.817 22.0225 226.838 14.8677 233.993C7.71294 241.148 3.6916 250.85 3.6875 260.969V384.906C3.6916 395.025 7.71294 404.727 14.8677 411.882C22.0225 419.037 31.7253 423.058 41.8438 423.062H75.5312C95.9638 423.062 112.148 422.087 127.875 417.594C127.938 417.584 128 417.573 128.062 417.563C142.062 413.479 155.284 406.065 166.125 396.094C166.604 396.575 167.009 397.123 167.5 397.594C167.521 397.615 167.542 397.636 167.562 397.656C187.484 416.664 215.214 425.469 242.969 425.469C254.801 425.469 266.524 424.202 277.938 421.625C285.161 419.994 292.228 417.785 299.125 415.125C305.797 420.267 313.983 423.058 322.406 423.063H354.344C364.462 423.058 374.165 419.037 381.32 411.882C388.475 404.728 392.496 395.025 392.5 384.906V378.938C397.21 378.297 401.865 377.352 406.438 376.062V378.438C406.44 386.231 408.828 393.837 413.28 400.234C417.732 406.63 424.036 411.51 431.344 414.219C441.184 417.866 451.146 420.661 461.219 422.562C471.368 424.479 481.663 425.469 491.969 425.469C513.71 425.469 535.311 421.665 553.344 406.844C553.344 406.833 553.344 406.823 553.344 406.813C571.312 392.022 579.437 368.026 579.438 346.813C579.437 333.54 575.973 318.771 568.094 306.375C570.208 301.558 571.304 296.355 571.312 291.094V264.875C571.31 256.465 568.531 248.29 563.405 241.622C558.28 234.954 551.096 230.165 542.969 228C533.981 225.608 525.117 223.79 516.344 222.562C516.342 222.562 516.346 222.532 516.344 222.531C516.25 222.518 516.156 222.514 516.062 222.5C507.315 221.234 498.552 220.563 489.812 220.563C469.463 220.563 448.524 225.167 431.688 238.875C415.051 226.971 395.077 222.813 375.438 222.813H322.406C314.008 222.822 305.847 225.601 299.188 230.719C291.638 227.753 283.933 225.278 276 223.656V223.688C265.85 221.6 255.373 220.563 244.688 220.563V220.562ZM354.344 296.938V301.406V305.875C353.717 303.918 353.313 302.19 353.312 301.406C353.313 300.617 353.717 298.885 354.344 296.938Z" fill="#ACD8F3"/>
<path d="M244.688 258.719C223.327 258.719 206.504 264.451 194.219 275.906C181.934 287.361 175.812 303.085 175.812 323.062C175.812 342.818 181.842 358.466 193.906 370.031C205.97 381.542 222.327 387.312 242.969 387.312C252.1 387.312 260.954 386.343 269.531 384.406C278.109 382.469 286.375 379.561 294.344 375.688V316.094H244.531V337.5H264.031V361.562C261.762 362.448 259.19 363.12 256.312 363.562C253.49 363.95 250.414 364.156 247.094 364.156C234.864 364.156 225.453 360.576 218.812 353.438C212.172 346.299 208.844 336.178 208.844 323.062C208.844 309.837 212.263 299.677 219.125 292.594C226.042 285.455 235.866 281.875 248.594 281.875C255.456 281.875 262.287 282.844 269.094 284.781C275.956 286.718 282.864 289.665 289.781 293.594V267.938C283.085 264.894 275.925 262.612 268.344 261.062C260.818 259.513 252.933 258.719 244.688 258.719ZM489.812 258.719C474.871 258.719 463.437 262.047 455.469 268.688C447.5 275.328 443.5 284.816 443.5 297.156C443.5 307.007 446.363 314.846 452.062 320.656C457.818 326.467 466.885 330.688 479.281 333.344L491.656 336.094C499.182 337.754 504.197 339.647 506.688 341.75C509.233 343.853 510.5 346.814 510.5 350.688C510.5 355.004 508.645 358.332 504.938 360.656C501.23 362.98 495.879 364.156 488.906 364.156C482.044 364.156 474.915 363.103 467.5 361C460.14 358.842 452.507 355.643 444.594 351.438V378.438C452.507 381.37 460.399 383.568 468.312 385.062C476.226 386.557 484.111 387.312 491.969 387.312C508.626 387.312 521.014 383.984 529.094 377.344C537.228 370.648 541.281 360.481 541.281 346.812C541.281 336.409 538.373 328.363 532.562 322.719C526.752 317.074 516.967 312.892 503.188 310.125L489.562 307.375C483.088 306.047 478.615 304.482 476.125 302.656C473.69 300.775 472.469 298.164 472.469 294.844C472.469 290.417 474.285 287.134 477.938 285.031C481.59 282.928 487.238 281.875 494.875 281.875C500.63 281.875 506.744 282.669 513.219 284.219C519.693 285.768 526.35 288.05 533.156 291.094V264.875C525.464 262.828 518.006 261.309 510.812 260.312C503.618 259.261 496.619 258.719 489.812 258.719ZM41.8438 260.969V384.906H75.5312C94.1249 384.906 108.078 383.562 117.375 380.906C126.672 378.195 134.641 373.638 141.281 367.219C147.092 361.63 151.396 355.18 154.219 347.875C157.041 340.515 158.469 332.165 158.469 322.812C158.469 313.571 157.041 305.305 154.219 298C151.396 290.695 147.092 284.246 141.281 278.656C134.696 272.237 126.773 267.688 117.531 265.031C108.345 262.32 94.3463 260.969 75.5312 260.969H41.8438ZM322.406 260.969V384.906H354.344V341.906H375.438C391.209 341.906 403.307 338.41 411.719 331.438C420.185 324.41 424.406 314.411 424.406 301.406C424.406 288.457 420.185 278.473 411.719 271.5C403.307 264.472 391.209 260.969 375.438 260.969H322.406ZM354.344 284.125H372.031C378.229 284.125 383.031 285.637 386.406 288.625C389.782 291.613 391.469 295.872 391.469 301.406C391.469 306.94 389.782 311.206 386.406 314.25C383.031 317.238 378.229 318.75 372.031 318.75H354.344V284.125ZM73.7812 285.125H85.25C98.3652 285.125 108.357 288.331 115.219 294.75C122.081 301.169 125.5 310.527 125.5 322.812C125.5 335.153 122.042 344.557 115.125 351.031C108.263 357.506 98.3098 360.75 85.25 360.75H73.7812V285.125Z" fill="black"/>
</svg>
